!!!OTL: Trinklied
!!!ARE: Europa, Mitteleuropa, Deutschland
!!!SCT: A0340
!!!YEM: Copyright 1995, estate of Helmut Schaffrath.
**kern
*ICvox
*Ivox
!! Mixed meters:  4/2; 3/1
*M3/1
*k[]
*C:
{2G
=1
2c
2c
2d
2d
=2
1e
1c}
=3
{1g
=4
2a
1g
2g
2g
2g
=5
*M4/2
1g
1e}
=6
{1a
=7
*M3/1
1g
2f
2e
1d
=8
*M4/2
0c}
=9
*M3/1
{1g
1e
1a
=10
2g
2f
2g
2e
1d
=11
*M4/2
0c}
=12
*M3/1
{1g
1e
1a
=13
2g
2f
2g
2e
1d
=14
1.c}
==
!!!AGN: Romanze, Ballade, Lied, Trinklied
!! Scandello 1567 No. 20.
!!!ONB: ESAC (Essen Associative Code) Database: ALTDEU
!!!AMT: irregular
!!!AIN: vox
!!!EED: Helmut Schaffrath
!!!EEV: 1.0
*-
